svgs/icons/sm/navigation.svg

<svg xmlns="http://www.w3.org/2000/svg" viewBox="0 0 16 16"><path fill="#34363D" d="M8.707 7.293c.189.189.293.44.293.707a.993.993 0 0 1-.293.707C8.518 8.896 8.267 9 8 9s-.518-.104-.707-.293A.993.993 0 0 1 7 8c0-.267.104-.518.293-.707C7.482 7.104 7.733 7 8 7s.518.104.707.293zM16 8A8 8 0 1 1 0 8a8 8 0 0 1 16 0zm-3.342-5.003L7.411 6.098a1.97 1.97 0 0 0-.825.488 1.97 1.97 0 0 0-.488.825l-3.1 5.246c-.119.201.145.464.345.345l5.246-3.1a1.99 1.99 0 0 0 .826-.488c.238-.238.394-.524.487-.825l3.1-5.246c.119-.201-.144-.464-.344-.346z"/></svg>

<?xml version="1.0" encoding="utf-8"?>
<!-- Generator: Adobe Illustrator 19.2.1, SVG Export Plug-In . SVG Version: 6.00 Build 0)  -->
<svg version="1.1" xmlns="http://www.w3.org/2000/svg" xmlns:xlink="http://www.w3.org/1999/xlink" x="0px" y="0px"
	 viewBox="0 0 16 16" enable-background="new 0 0 16 16" xml:space="preserve">
<g id="aw">
	<path fill="#34363D" d="M8.707,7.293C8.896,7.482,9,7.733,9,8c0,0.267-0.104,0.518-0.293,0.707C8.518,8.896,8.267,9,8,9
		S7.482,8.896,7.293,8.707C7.104,8.518,7,8.267,7,8c0-0.267,0.104-0.518,0.293-0.707C7.482,7.104,7.733,7,8,7
		S8.518,7.104,8.707,7.293z M16,8c0,4.418-3.582,8-8,8s-8-3.582-8-8s3.582-8,8-8S16,3.582,16,8z M12.658,2.997L7.411,6.098
		C7.11,6.191,6.824,6.347,6.586,6.586C6.347,6.824,6.191,7.11,6.098,7.411l-3.1,5.246c-0.119,0.201,0.145,0.464,0.345,0.345
		l5.246-3.1c0.301-0.093,0.587-0.25,0.826-0.488C9.653,9.176,9.809,8.89,9.902,8.589l3.1-5.246
		C13.121,3.142,12.858,2.879,12.658,2.997z"/>
</g>
<g id="guides">
</g>
</svg>
